X:1
T:Gruess von Brülisau. C-Dur
S:Naturjodel rund um den Saentis (www.roothuus-gonten.ch)
%%partsbox
%P:ABC 
R:Naturjodel
Q:1/4=50 
M:6/4
L:1/4
K:C %  (%%MIDI gchordon) 
[P:A]  E>E F>F  G>G | [M:4/4] "Dm"A>DD2 | [M:6/4] "G7"G>F D B/>A/ Bd | "C"G>AE c/>d/ e/>d/ c | 
w: ndra di dio di jo di  djo di o   jo li o u-lu u-u   djo du o u-lu u-lu du 
"C"E>E "G7"F>F  "C"G>G | [M:4/4] "Dm"A>DD2 | "G7"G>FD B/>A/ | BdGe | "C"c3z |] 
w: dra di dio di ja di   djo di o   dro di do u-lu   u-u o u   lu 
L:1/8
[P:B] {/E}"C"E2 G2 "D7"^F2 "G7"A2 | {/G}"C"G2 {cd}e>d c>d e2 | {c}"G7"B2 {c}d>c B>c d2 | "C"c2 {/d}e>d c4 | 
w:(n)djo-o do-ho   (n)djo (ju)u lu u-lu u   (u)u (lu)u lu u lu u  u (u)lu u lu 
{/E}"C"E2 G2 "D7"^F2 "G7"A2 | {/G}"C"G2 {cd}e>d c>d ea | "G7"g3f d2 {/B}e2 | "C"c6 ec | 
w:(n)djo-o do-ho   (n)djo (ju)u lu u-lu u-u   dju lu du (u)u   lu u-u   
[P:C] "G7"c2 {/c}d>c B>c d2 | "C"c2 e>d c>d e2 | "G7"B2 {/c}d>c B>c d2 | "C"c2 e>d c4 | 
w: du (u)u lu u-u du   u u lu u lu u   du (u)u lu u lu u   u u-u du 
{/E}"C"E2 G2 "D7"^F2 "G7"A2 | {/G}"C"G2 {cd}e>d c>d ea | "G7"g3f d2 {/B}e2 | "C"c6 z2 |] 
w:(n)djo-o do-ho   (n)djo (ju)u lu u-lu u-u   dju lu du (u)u   u
W:
%W:Parts:ABC
W: trad. AI
W: Jodlerin und Jodler, Geschwister Inauen (Albertine, Johann)
W: Streichmusik Franzsepp Inauen, Appenzell
W: Schellackplatte Tell Record TR 406; (1950) "Gruess von Brülisau"
W: 
W: Melodie wird durch feine Verziehrungen bereichert. 
W: Der 1.Teil ist auch bekannt als "Höttebuebes" W: oder "Im Grünfeld", 
W: der 2. und 3.Teil als "Zörivaterunser". Am Landifestspiel 1939 
W: "Mer sönd halt Appezöller" wurde es von der Stegreifgruppe der Harmonie gespielt.
W: Johann Manser (1917-1985) war dabei erstmals Melodieführer. 
W: Er schreibt in seinem Buch "Heemetklang us Innerrhode" (1979, S.240): 
W: "An jenem Tag waren nicht alle in der Kirche gewesen, so sollte dieses 
W: Ruggusserli die Funktion des Gebetes übernehmen".
W:
W: Teile B und C registriert unter #100
W: 
W:https://www.roothuus-gonten.ch/mediendateien/jodel/pdf/Gruess_von_Bruelisau.pdf
W: *AUDIO*:  www.roothuus-gonten.ch/cms/index.php/de/naturjodel-rund-um-den-saentis
% © 2015 ROOTHUUS GONTEN. #61 (SCH028B)
% Mar 11, 2019 

